img/avatar.svg

<?xml version="1.0" encoding="UTF-8" standalone="no"?>
<!-- Created with Inkscape (http://www.inkscape.org/) -->

<svg
   xmlns:dc="http://purl.org/dc/elements/1.1/"
   xmlns:cc="http://creativecommons.org/ns#"
   xmlns:rdf="http://www.w3.org/1999/02/22-rdf-syntax-ns#"
   xmlns:svg="http://www.w3.org/2000/svg"
   xmlns="http://www.w3.org/2000/svg"
   xmlns:sodipodi="http://sodipodi.sourceforge.net/DTD/sodipodi-0.dtd"
   xmlns:inkscape="http://www.inkscape.org/namespaces/inkscape"
   version="1.1"
   id="svg2"
   xml:space="preserve"
   width="326.04297"
   height="326.04688"
   viewBox="0 0 326.04297 326.04688"
   sodipodi:docname="avatar.svg"
   inkscape:version="0.92.4 (unknown)"><metadata
     id="metadata8"><rdf:RDF><cc:Work
         rdf:about=""><dc:format>image/svg+xml</dc:format><dc:type
           rdf:resource="http://purl.org/dc/dcmitype/StillImage" /><dc:title></dc:title></cc:Work></rdf:RDF></metadata><defs
     id="defs6"><clipPath
       clipPathUnits="userSpaceOnUse"
       id="clipPath28"><path
         d="M 219.301,107 H 255 V 72 h -35.699 z"
         id="path26"
         inkscape:connector-curvature="0" /></clipPath><clipPath
       clipPathUnits="userSpaceOnUse"
       id="clipPath38"><path
         d="M 219.301,142 H 255 v -36 h -35.699 z"
         id="path36"
         inkscape:connector-curvature="0" /></clipPath><clipPath
       clipPathUnits="userSpaceOnUse"
       id="clipPath48"><path
         d="M 219.301,177 H 255 v -36 h -35.699 z"
         id="path46"
         inkscape:connector-curvature="0" /></clipPath><clipPath
       clipPathUnits="userSpaceOnUse"
       id="clipPath58"><path
         d="M 219.301,212 H 255 v -36 h -35.699 z"
         id="path56"
         inkscape:connector-curvature="0" /></clipPath><clipPath
       clipPathUnits="userSpaceOnUse"
       id="clipPath68"><path
         d="M 219.301,247 H 255 v -36 h -35.699 z"
         id="path66"
         inkscape:connector-curvature="0" /></clipPath><clipPath
       clipPathUnits="userSpaceOnUse"
       id="clipPath78"><path
         d="M 219.301,282 H 255 v -36 h -35.699 z"
         id="path76"
         inkscape:connector-curvature="0" /></clipPath><clipPath
       clipPathUnits="userSpaceOnUse"
       id="clipPath88"><path
         d="M 219.301,317 H 255 v -36 h -35.699 z"
         id="path86"
         inkscape:connector-curvature="0" /></clipPath><clipPath
       clipPathUnits="userSpaceOnUse"
       id="clipPath98"><path
         d="M 219.301,352 H 255 v -36 h -35.699 z"
         id="path96"
         inkscape:connector-curvature="0" /></clipPath><clipPath
       clipPathUnits="userSpaceOnUse"
       id="clipPath108"><path
         d="M 219.301,386.398 H 255 V 351 h -35.699 z"
         id="path106"
         inkscape:connector-curvature="0" /></clipPath><clipPath
       clipPathUnits="userSpaceOnUse"
       id="clipPath136"><path
         d="m 254,386.398 h 36 V 351 h -36 z"
         id="path134"
         inkscape:connector-curvature="0" /></clipPath><clipPath
       clipPathUnits="userSpaceOnUse"
       id="clipPath164"><path
         d="m 289,386.398 h 36 V 351 h -36 z"
         id="path162"
         inkscape:connector-curvature="0" /></clipPath><clipPath
       clipPathUnits="userSpaceOnUse"
       id="clipPath192"><path
         d="m 324,386.398 h 36 V 351 h -36 z"
         id="path190"
         inkscape:connector-curvature="0" /></clipPath><clipPath
       clipPathUnits="userSpaceOnUse"
       id="clipPath220"><path
         d="m 359,386.398 h 35 V 351 h -35 z"
         id="path218"
         inkscape:connector-curvature="0" /></clipPath><clipPath
       clipPathUnits="userSpaceOnUse"
       id="clipPath248"><path
         d="m 393,386.398 h 36 V 351 h -36 z"
         id="path246"
         inkscape:connector-curvature="0" /></clipPath><clipPath
       clipPathUnits="userSpaceOnUse"
       id="clipPath276"><path
         d="m 428,386.398 h 36 V 351 h -36 z"
         id="path274"
         inkscape:connector-curvature="0" /></clipPath><clipPath
       clipPathUnits="userSpaceOnUse"
       id="clipPath304"><path
         d="m 463,386.398 h 36 V 351 h -36 z"
         id="path302"
         inkscape:connector-curvature="0" /></clipPath><clipPath
       clipPathUnits="userSpaceOnUse"
       id="clipPath332"><path
         d="m 498,386.398 h 36 V 351 h -36 z"
         id="path330"
         inkscape:connector-curvature="0" /></clipPath></defs><sodipodi:namedview
     pagecolor="#ffffff"
     bordercolor="#666666"
     borderopacity="1"
     objecttolerance="10"
     gridtolerance="10"
     guidetolerance="10"
     inkscape:pageopacity="0"
     inkscape:pageshadow="2"
     inkscape:window-width="1871"
     inkscape:window-height="1025"
     id="namedview4"
     showgrid="false"
     inkscape:zoom="1.0395315"
     inkscape:cx="98.723232"
     inkscape:cy="202.66293"
     inkscape:window-x="49"
     inkscape:window-y="541"
     inkscape:window-maximized="1"
     inkscape:current-layer="g10"
     fit-margin-top="0"
     fit-margin-left="0"
     fit-margin-right="0"
     fit-margin-bottom="0"
     inkscape:showpageshadow="false" /><g
     id="g10"
     inkscape:groupmode="layer"
     inkscape:label="Rplot"
     transform="matrix(1.3333333,0,0,-1.3333333,-338.97852,468.625)"><path
       style="fill:#ff4949;fill-opacity:1;fill-rule:nonzero;stroke:none;stroke-width:1.33333325"
       d="m 338.97852,402.84375 v 46.57813 h 46.57812 46.58008 46.57812 46.57618 46.57421 46.57813 v -46.57813 h -46.57813 -46.57421 -46.57618 -46.57812 -46.58008 z"
       transform="matrix(0.75000002,0,0,-0.75000002,0,444.00001)"
       id="path116"
       inkscape:export-xdpi="300"
       inkscape:export-ydpi="300"
       inkscape:connector-curvature="0" /><path
       style="fill:#ff4949;fill-opacity:1;fill-rule:nonzero;stroke:none;stroke-width:1.33333325"
       d="m 338.97852,309.6875 v 46.58008 h 46.57812 46.58008 46.57812 46.57618 V 309.6875 h -46.57618 -46.57812 -46.58008 z"
       transform="matrix(0.75000002,0,0,-0.75000002,0,444.00001)"
       id="path120"
       inkscape:export-xdpi="300"
       inkscape:export-ydpi="300"
       inkscape:connector-curvature="0" /><path
       style="fill:#ff4949;fill-opacity:1;fill-rule:nonzero;stroke:none;stroke-width:1.33333325"
       d="m 338.97852,216.53125 v 46.57813 h 46.57812 46.58008 v -46.57813 h -46.58008 z"
       transform="matrix(0.75000002,0,0,-0.75000002,0,444.00001)"
       id="path124"
       inkscape:export-xdpi="300"
       inkscape:export-ydpi="300"
       inkscape:connector-curvature="0" /><path
       style="fill:#ff4949;fill-opacity:1;fill-rule:nonzero;stroke:none;stroke-width:1.33333325"
       d="m 385.55664,123.375 v 46.57812 h 46.58008 46.57812 46.57618 46.57421 46.57813 46.57812 V 123.375 h -46.57812 -46.57813 -46.57421 -46.57618 -46.57812 z"
       transform="matrix(0.75000002,0,0,-0.75000002,0,444.00001)"
       id="path156"
       inkscape:export-xdpi="300"
       inkscape:export-ydpi="300"
       inkscape:connector-curvature="0" /><path
       style="fill:#ff4949;fill-opacity:1;fill-rule:nonzero;stroke:none;stroke-width:1.33333325"
       d="m 478.71289,216.53125 v 46.57813 h 46.57422 0.004 46.57421 46.57813 46.57812 v -46.57813 h -46.57812 -46.57813 -46.57421 -0.004 z"
       transform="matrix(0.75000002,0,0,-0.75000002,0,444.00001)"
       id="path208"
       inkscape:export-xdpi="300"
       inkscape:export-ydpi="300"
       inkscape:connector-curvature="0" /><path
       style="fill:#ff4949;fill-opacity:1;fill-rule:nonzero;stroke:none;stroke-width:1.33333325"
       d="m 571.86328,309.6875 v 46.58008 h 46.58008 46.57812 V 309.6875 h -46.57812 z"
       transform="matrix(0.75000002,0,0,-0.75000002,0,444.00001)"
       id="path260"
       inkscape:export-xdpi="300"
       inkscape:export-ydpi="300"
       inkscape:connector-curvature="0" /></g></svg>

<?xml version="1.0" encoding="UTF-8" standalone="no"?>
<!-- Created with Inkscape (http://www.inkscape.org/) -->

<svg
   xmlns:dc="http://purl.org/dc/elements/1.1/"
   xmlns:cc="http://creativecommons.org/ns#"
   xmlns:rdf="http://www.w3.org/1999/02/22-rdf-syntax-ns#"
   xmlns:svg="http://www.w3.org/2000/svg"
   xmlns="http://www.w3.org/2000/svg"
   xmlns:sodipodi="http://sodipodi.sourceforge.net/DTD/sodipodi-0.dtd"
   xmlns:inkscape="http://www.inkscape.org/namespaces/inkscape"
   version="1.1"
   id="svg2"
   xml:space="preserve"
   width="1004"
   height="592"
   viewBox="0 0 1004 592"
   sodipodi:docname="avatar.svg"
   inkscape:version="0.92.2 (5c3e80d, 2017-08-06)"><metadata
     id="metadata8"><rdf:RDF><cc:Work
         rdf:about=""><dc:format>image/svg+xml</dc:format><dc:type
           rdf:resource="http://purl.org/dc/dcmitype/StillImage" /><dc:title></dc:title></cc:Work></rdf:RDF></metadata><defs
     id="defs6"><clipPath
       clipPathUnits="userSpaceOnUse"
       id="clipPath28"><path
         d="M 219.301,107 H 255 V 72 h -35.699 z"
         id="path26"
         inkscape:connector-curvature="0" /></clipPath><clipPath
       clipPathUnits="userSpaceOnUse"
       id="clipPath38"><path
         d="M 219.301,142 H 255 v -36 h -35.699 z"
         id="path36"
         inkscape:connector-curvature="0" /></clipPath><clipPath
       clipPathUnits="userSpaceOnUse"
       id="clipPath48"><path
         d="M 219.301,177 H 255 v -36 h -35.699 z"
         id="path46"
         inkscape:connector-curvature="0" /></clipPath><clipPath
       clipPathUnits="userSpaceOnUse"
       id="clipPath58"><path
         d="M 219.301,212 H 255 v -36 h -35.699 z"
         id="path56"
         inkscape:connector-curvature="0" /></clipPath><clipPath
       clipPathUnits="userSpaceOnUse"
       id="clipPath68"><path
         d="M 219.301,247 H 255 v -36 h -35.699 z"
         id="path66"
         inkscape:connector-curvature="0" /></clipPath><clipPath
       clipPathUnits="userSpaceOnUse"
       id="clipPath78"><path
         d="M 219.301,282 H 255 v -36 h -35.699 z"
         id="path76"
         inkscape:connector-curvature="0" /></clipPath><clipPath
       clipPathUnits="userSpaceOnUse"
       id="clipPath88"><path
         d="M 219.301,317 H 255 v -36 h -35.699 z"
         id="path86"
         inkscape:connector-curvature="0" /></clipPath><clipPath
       clipPathUnits="userSpaceOnUse"
       id="clipPath98"><path
         d="M 219.301,352 H 255 v -36 h -35.699 z"
         id="path96"
         inkscape:connector-curvature="0" /></clipPath><clipPath
       clipPathUnits="userSpaceOnUse"
       id="clipPath108"><path
         d="M 219.301,386.398 H 255 V 351 h -35.699 z"
         id="path106"
         inkscape:connector-curvature="0" /></clipPath><clipPath
       clipPathUnits="userSpaceOnUse"
       id="clipPath136"><path
         d="m 254,386.398 h 36 V 351 h -36 z"
         id="path134"
         inkscape:connector-curvature="0" /></clipPath><clipPath
       clipPathUnits="userSpaceOnUse"
       id="clipPath164"><path
         d="m 289,386.398 h 36 V 351 h -36 z"
         id="path162"
         inkscape:connector-curvature="0" /></clipPath><clipPath
       clipPathUnits="userSpaceOnUse"
       id="clipPath192"><path
         d="m 324,386.398 h 36 V 351 h -36 z"
         id="path190"
         inkscape:connector-curvature="0" /></clipPath><clipPath
       clipPathUnits="userSpaceOnUse"
       id="clipPath220"><path
         d="m 359,386.398 h 35 V 351 h -35 z"
         id="path218"
         inkscape:connector-curvature="0" /></clipPath><clipPath
       clipPathUnits="userSpaceOnUse"
       id="clipPath248"><path
         d="m 393,386.398 h 36 V 351 h -36 z"
         id="path246"
         inkscape:connector-curvature="0" /></clipPath><clipPath
       clipPathUnits="userSpaceOnUse"
       id="clipPath276"><path
         d="m 428,386.398 h 36 V 351 h -36 z"
         id="path274"
         inkscape:connector-curvature="0" /></clipPath><clipPath
       clipPathUnits="userSpaceOnUse"
       id="clipPath304"><path
         d="m 463,386.398 h 36 V 351 h -36 z"
         id="path302"
         inkscape:connector-curvature="0" /></clipPath><clipPath
       clipPathUnits="userSpaceOnUse"
       id="clipPath332"><path
         d="m 498,386.398 h 36 V 351 h -36 z"
         id="path330"
         inkscape:connector-curvature="0" /></clipPath></defs><sodipodi:namedview
     pagecolor="#ffffff"
     bordercolor="#666666"
     borderopacity="1"
     objecttolerance="10"
     gridtolerance="10"
     guidetolerance="10"
     inkscape:pageopacity="0"
     inkscape:pageshadow="2"
     inkscape:window-width="1920"
     inkscape:window-height="1017"
     id="namedview4"
     showgrid="false"
     inkscape:zoom="1.0395315"
     inkscape:cx="519.95878"
     inkscape:cy="238.6526"
     inkscape:window-x="-8"
     inkscape:window-y="-8"
     inkscape:window-maximized="1"
     inkscape:current-layer="g10" /><g
     id="g10"
     inkscape:groupmode="layer"
     inkscape:label="Rplot"
     transform="matrix(1.3333333,0,0,-1.3333333,0,592)"><path
       style="fill:#ff4949;fill-opacity:1;fill-rule:nonzero;stroke:none;stroke-width:1.33333325"
       d="M 338.97852 402.84375 L 338.97852 449.42188 L 385.55664 449.42188 L 432.13672 449.42188 L 478.71484 449.42188 L 525.29102 449.42188 L 571.86523 449.42188 L 618.44336 449.42188 L 618.44336 402.84375 L 571.86523 402.84375 L 525.29102 402.84375 L 478.71484 402.84375 L 432.13672 402.84375 L 385.55664 402.84375 L 338.97852 402.84375 z "
       transform="matrix(0.75000002,0,0,-0.75000002,0,444.00001)"
       id="path116"
       inkscape:export-xdpi="300"
       inkscape:export-ydpi="300" /><path
       style="fill:#ff4949;fill-opacity:1;fill-rule:nonzero;stroke:none;stroke-width:1.33333325"
       d="M 338.97852 309.6875 L 338.97852 356.26758 L 385.55664 356.26758 L 432.13672 356.26758 L 478.71484 356.26758 L 525.29102 356.26758 L 525.29102 309.6875 L 478.71484 309.6875 L 432.13672 309.6875 L 385.55664 309.6875 L 338.97852 309.6875 z "
       transform="matrix(0.75000002,0,0,-0.75000002,0,444.00001)"
       id="path120"
       inkscape:export-xdpi="300"
       inkscape:export-ydpi="300" /><path
       style="fill:#ff4949;fill-opacity:1;fill-rule:nonzero;stroke:none;stroke-width:1.33333325"
       d="M 338.97852 216.53125 L 338.97852 263.10938 L 385.55664 263.10938 L 432.13672 263.10938 L 432.13672 216.53125 L 385.55664 216.53125 L 338.97852 216.53125 z "
       transform="matrix(0.75000002,0,0,-0.75000002,0,444.00001)"
       id="path124"
       inkscape:export-xdpi="300"
       inkscape:export-ydpi="300" /><path
       style="fill:#ff4949;fill-opacity:1;fill-rule:nonzero;stroke:none;stroke-width:1.33333325"
       d="M 385.55664 123.375 L 385.55664 169.95312 L 432.13672 169.95312 L 478.71484 169.95312 L 525.29102 169.95312 L 571.86523 169.95312 L 618.44336 169.95312 L 665.02148 169.95312 L 665.02148 123.375 L 618.44336 123.375 L 571.86523 123.375 L 525.29102 123.375 L 478.71484 123.375 L 432.13672 123.375 L 385.55664 123.375 z "
       transform="matrix(0.75000002,0,0,-0.75000002,0,444.00001)"
       id="path156"
       inkscape:export-xdpi="300"
       inkscape:export-ydpi="300" /><path
       style="fill:#ff4949;fill-opacity:1;fill-rule:nonzero;stroke:none;stroke-width:1.33333325"
       d="M 478.71289 216.53125 L 478.71289 263.10938 L 525.28711 263.10938 L 525.29102 263.10938 L 571.86523 263.10938 L 618.44336 263.10938 L 665.02148 263.10938 L 665.02148 216.53125 L 618.44336 216.53125 L 571.86523 216.53125 L 525.29102 216.53125 L 525.28711 216.53125 L 478.71289 216.53125 z "
       transform="matrix(0.75000002,0,0,-0.75000002,0,444.00001)"
       id="path208"
       inkscape:export-xdpi="300"
       inkscape:export-ydpi="300" /><path
       style="fill:#ff4949;fill-opacity:1;fill-rule:nonzero;stroke:none;stroke-width:1.33333325"
       d="M 571.86328 309.6875 L 571.86328 356.26758 L 618.44336 356.26758 L 665.02148 356.26758 L 665.02148 309.6875 L 618.44336 309.6875 L 571.86328 309.6875 z "
       transform="matrix(0.75000002,0,0,-0.75000002,0,444.00001)"
       id="path260"
       inkscape:export-xdpi="300"
       inkscape:export-ydpi="300" /></g></svg>
